X: 1
T: Corn Stack, The
M: 4/4
L: 1/8
R: reel
K: Emin
B,EEE B,EFA|B2ed BdAF|DFFF BFAF|DEFD EDB,A,|
B,EEE B,EFA|B2ed BdAF|DFFF BFAF|DFAF FEE2:|
e2df eBBB|defg afdf|gbag fagf|(3efgfg edBe|
e2df eBBB|defg afdf|gBeg fdeB|dBAc BEE2:|
